assets/W/sm/01_FullCollection_CTA_SM.svg

<svg data-name="Full Collection CTA copy" xmlns="http://www.w3.org/2000/svg" width="768" height="120"><path data-name="Rectangle 133 copy 3" fill="#9a927f" d="M0 0h768v120H0z"/><g fill="#fff"><path data-name="Shop the full collection here" d="M111.644 67.053c1.289 2.279 4.138 3.838 7.587 3.838 4.168 0 7.107-2.429 7.107-6.147.03-3.179-1.859-5.068-5.008-6.237l-2.159-.81c-2.189-.81-3.239-1.5-3.239-3.059 0-1.529 1.559-2.459 3.359-2.459a5.157 5.157 0 0 1 4.048 1.979l2.429-2.369a8.193 8.193 0 0 0-6.447-2.909c-3.959 0-6.928 2.279-6.928 6 0 2.909 1.65 4.768 5.038 6l2.34.84c2.039.75 3.028 1.739 3.028 3.239 0 1.589-1.469 2.639-3.448 2.639a5.8 5.8 0 0 1-4.948-2.729zm20.009 3.479h3.509v-9.147h10.525v9.146h3.513V49.24h-3.509v8.816h-10.529V49.24h-3.509v21.291zm44.962-10.646a11.006 11.006 0 1 0-11.006 11.005 10.956 10.956 0 0 0 11.006-11.005zm-18.473 0a7.454 7.454 0 1 1 7.467 7.617 7.464 7.464 0 0 1-7.467-7.617zm30.6-10.646h-6.778v21.291h3.509v-7.377h3.269c4.378 0 7.377-3.029 7.377-6.957s-3.001-6.957-7.379-6.957zm-.03 10.616h-3.239v-7.317h3.239a3.67 3.67 0 1 1-.002 7.317zM211.9 70.531h3.508V52.6h6.208v-3.36h-15.893v3.36h6.177v17.931zm14.371 0h3.508v-9.146h10.526v9.146h3.509V49.24h-3.509v8.816H229.78V49.24h-3.508v21.291zm24.3 0h12.805v-3.358h-9.3v-5.758h7.5v-3.358h-7.5V52.6h9.3v-3.36h-12.804v21.291zm26.909 0h3.509v-9.116h7.2v-3.328h-7.2V52.6h9.146v-3.36h-12.654v21.291zm34.283-8.337V49.24h-3.508v13.015c0 3.329-1.98 5.248-4.948 5.248-3 0-4.978-1.919-4.978-5.248V49.24h-3.509v12.955c0 5.308 3.479 8.7 8.487 8.7 4.949-.004 8.457-3.395 8.457-8.7zm6.487 8.337h13.254v-3.358h-9.746V49.24h-3.508v21.291zm17.969 0h13.255v-3.358h-9.746V49.24h-3.508v21.291zm24.241-10.646a11.086 11.086 0 0 0 20.6 5.608l-3.029-1.739a7.617 7.617 0 1 1 0-7.737l3.029-1.739a11.086 11.086 0 0 0-20.599 5.608zm46.131 0a11.006 11.006 0 1 0-11.006 11.005 10.956 10.956 0 0 0 11.007-11.004zm-18.473 0a7.454 7.454 0 1 1 7.467 7.617 7.464 7.464 0 0 1-7.466-7.616zm23.822 10.646h13.254v-3.358h-9.746V49.24h-3.508v21.291zm17.969 0h13.255v-3.358h-9.746V49.24h-3.509v21.291zm17.97 0h12.805v-3.358h-9.3v-5.758h7.5v-3.358h-7.5V52.6h9.3v-3.36h-12.805v21.291zm16.441-10.645a11.086 11.086 0 0 0 20.6 5.608l-3.029-1.739a7.617 7.617 0 1 1 0-7.737l3.029-1.739a11.086 11.086 0 0 0-20.6 5.607zm29.607 10.646h3.509V52.6h6.208v-3.36H487.75v3.36h6.177v17.931zm14.372 0h3.508V49.24H508.3v21.291zm30.891-10.646a11.006 11.006 0 1 0-11.006 11.005 10.956 10.956 0 0 0 11.006-11.005zm-18.473 0a7.454 7.454 0 1 1 7.467 7.617 7.464 7.464 0 0 1-7.467-7.617zM563.1 70.531V49.24h-3.539V64.5L547.6 49.24h-3.059v21.291h3.508V55.208l12 15.324h3.051zm15.276 0h3.509v-9.146h10.526v9.146h3.508V49.24h-3.508v8.816h-10.525V49.24h-3.509v21.291zm24.3 0h12.8v-3.358h-9.3v-5.758h7.5v-3.358h-7.5V52.6h9.3v-3.36h-12.8v21.291zm18.36 0h3.509v-9.356h1.589l7.8 9.356h4.318l-7.917-9.566c3.059-.72 4.828-2.669 4.828-5.668 0-3.509-2.489-6.057-6.447-6.057h-7.677v21.291zm3.509-12.415v-5.637h3.748c2.069 0 3.359.99 3.359 2.819s-1.29 2.819-3.359 2.819h-3.748zm17.341 12.415h12.805v-3.358h-9.3v-5.758h7.5v-3.358h-7.5V52.6h9.3v-3.36h-12.804v21.291z" fill-rule="evenodd"/><path d="M578 77h78v2h-78z"/></g></svg>

<svg id="Full_Collection_CTA_copy" data-name="Full Collection CTA copy" xmlns="http://www.w3.org/2000/svg" width="768" height="120" viewBox="0 0 768 120">
  <metadata><?xpacket begin="﻿" id="W5M0MpCehiHzreSzNTczkc9d"?>
<x:xmpmeta xmlns:x="adobe:ns:meta/" x:xmptk="Adobe XMP Core 5.6-c138 79.159824, 2016/09/14-01:09:01        ">
   <rdf:RDF xmlns:rdf="http://www.w3.org/1999/02/22-rdf-syntax-ns#">
      <rdf:Description rdf:about=""/>
   </rdf:RDF>
</x:xmpmeta>
                                                                                                    
                                                                                                    
                                                                                                    
                                                                                                    
                                                                                                    
                                                                                                    
                                                                                                    
                                                                                                    
                                                                                                    
                                                                                                    
                                                                                                    
                                                                                                    
                                                                                                    
                                                                                                    
                                                                                                    
                                                                                                    
                                                                                                    
                                                                                                    
                                                                                                    
                                                                                                    
                           
<?xpacket end="w"?></metadata>
<defs>
    <style>
      .cls-1 {
        fill: #9a927f;
      }

      .cls-2, .cls-3 {
        fill: #fff;
      }

      .cls-2 {
        fill-rule: evenodd;
      }
    </style>
  </defs>
  <rect id="Rectangle_133_copy_3" data-name="Rectangle 133 copy 3" class="cls-1" width="768" height="120"/>
  <g>
    <path id="Shop_the_full_collection_here" data-name="Shop the full collection here" class="cls-2" d="M111.644,67.053c1.289,2.279,4.138,3.838,7.587,3.838,4.168,0,7.107-2.429,7.107-6.147,0.03-3.179-1.859-5.068-5.008-6.237l-2.159-.81c-2.189-.81-3.239-1.5-3.239-3.059,0-1.529,1.559-2.459,3.359-2.459a5.157,5.157,0,0,1,4.048,1.979l2.429-2.369a8.193,8.193,0,0,0-6.447-2.909c-3.959,0-6.928,2.279-6.928,6,0,2.909,1.65,4.768,5.038,6l2.34,0.84c2.039,0.75,3.028,1.739,3.028,3.239,0,1.589-1.469,2.639-3.448,2.639a5.8,5.8,0,0,1-4.948-2.729Zm20.009,3.479h3.509V61.385h10.525v9.146H149.2V49.24h-3.509v8.816H135.162V49.24h-3.509V70.531Zm44.962-10.646a11.006,11.006,0,1,0-11.006,11.005A10.956,10.956,0,0,0,176.615,59.886Zm-18.473,0a7.454,7.454,0,1,1,7.467,7.617A7.464,7.464,0,0,1,158.142,59.886Zm30.6-10.646h-6.778V70.531h3.509V63.154h3.269c4.378,0,7.377-3.029,7.377-6.957S193.118,49.24,188.74,49.24Zm-0.03,10.616h-3.239V52.539h3.239A3.67,3.67,0,1,1,188.71,59.856ZM211.9,70.531h3.508V52.6h6.208V49.24H205.723V52.6H211.9V70.531Zm14.371,0h3.508V61.385h10.526v9.146h3.509V49.24h-3.509v8.816H229.78V49.24h-3.508V70.531Zm24.3,0h12.805V67.173h-9.3V61.415h7.5V58.057h-7.5V52.6h9.3V49.24H250.572V70.531Zm26.909,0h3.509V61.415h7.2V58.087h-7.2V52.6h9.146V49.24H277.481V70.531Zm34.283-8.337V49.24h-3.508V62.255c0,3.329-1.98,5.248-4.948,5.248-3,0-4.978-1.919-4.978-5.248V49.24h-3.509V62.195c0,5.308,3.479,8.7,8.487,8.7C308.256,70.891,311.764,67.5,311.764,62.195Zm6.487,8.337h13.254V67.173h-9.746V49.24h-3.508V70.531Zm17.969,0h13.255V67.173h-9.746V49.24H336.22V70.531Zm24.241-10.646a11.086,11.086,0,0,0,20.6,5.608l-3.029-1.739a7.617,7.617,0,1,1,0-7.737l3.029-1.739A11.086,11.086,0,0,0,360.461,59.886Zm46.131,0a11.006,11.006,0,1,0-11.006,11.005A10.956,10.956,0,0,0,406.592,59.886Zm-18.473,0a7.454,7.454,0,1,1,7.467,7.617A7.464,7.464,0,0,1,388.119,59.886ZM411.94,70.531h13.254V67.173h-9.746V49.24H411.94V70.531Zm17.969,0h13.255V67.173h-9.746V49.24h-3.509V70.531Zm17.97,0h12.805V67.173h-9.3V61.415h7.5V58.057h-7.5V52.6h9.3V49.24H447.879V70.531ZM464.32,59.886a11.086,11.086,0,0,0,20.6,5.608l-3.029-1.739a7.617,7.617,0,1,1,0-7.737l3.029-1.739A11.086,11.086,0,0,0,464.32,59.886Zm29.607,10.646h3.509V52.6h6.208V49.24H487.75V52.6h6.177V70.531Zm14.372,0h3.508V49.24H508.3V70.531ZM539.19,59.886a11.006,11.006,0,1,0-11.006,11.005A10.956,10.956,0,0,0,539.19,59.886Zm-18.473,0a7.454,7.454,0,1,1,7.467,7.617A7.464,7.464,0,0,1,520.717,59.886ZM563.1,70.531V49.24h-3.539V64.5L547.6,49.24h-3.059V70.531h3.508V55.208l12,15.324H563.1Zm15.276,0h3.509V61.385h10.526v9.146h3.508V49.24h-3.508v8.816H581.886V49.24h-3.509V70.531Zm24.3,0h12.8V67.173h-9.3V61.415h7.5V58.057h-7.5V52.6h9.3V49.24h-12.8V70.531Zm18.36,0h3.509V61.175h1.589l7.8,9.356h4.318l-7.917-9.566c3.059-.72,4.828-2.669,4.828-5.668,0-3.509-2.489-6.057-6.447-6.057h-7.677V70.531Zm3.509-12.415V52.479h3.748c2.069,0,3.359.99,3.359,2.819s-1.29,2.819-3.359,2.819h-3.748Zm17.341,12.415h12.805V67.173h-9.3V61.415h7.5V58.057h-7.5V52.6h9.3V49.24H641.887V70.531Z"/>
    <rect class="cls-3" x="578" y="77" width="78" height="2"/>
  </g>
</svg>
